lending/img/email-rass/email-ok.svg

<svg width="16" height="26" viewBox="0 0 16 26" fill="none" xmlns="http://www.w3.org/2000/svg">
<path fill-rule="evenodd" clip-rule="evenodd" d="M7.96259 0C4.84253 0 2.27058 2.52175 2.27058 5.67394C2.27058 8.7841 4.80036 11.3479 7.96259 11.3479C11.1248 11.3479 13.6546 8.82613 13.6546 5.67394C13.6546 2.52175 11.0827 0 7.96259 0ZM7.96259 7.56526C6.90851 7.56526 6.06525 6.72467 6.06525 5.67394C6.06525 4.62321 6.90851 3.78263 7.96259 3.78263C9.01666 3.78263 9.85993 4.62321 9.85993 5.67394C9.85993 6.72467 9.01666 7.56526 7.96259 7.56526ZM10.408 16.7697C11.9681 16.5175 13.5281 15.9711 14.9617 15.1725C15.8471 14.6682 16.1844 13.5754 15.7206 12.6508C15.2568 11.7682 14.1184 11.4319 13.233 11.9363C9.98641 13.7015 5.98093 13.7015 2.77654 11.8943C1.89111 11.3899 0.752711 11.6841 0.246754 12.5667C-0.259202 13.4914 0.0359391 14.5841 0.921363 15.0885C2.31274 15.887 3.87277 16.3914 5.43281 16.6856L1.04785 22.1494C0.541896 22.7798 0.499733 23.8306 0.963526 24.461C1.34299 24.9653 1.89111 25.2175 2.43923 25.2175C2.98735 25.2175 3.49331 25.0074 3.87278 24.5451L7.92043 19.5436L12.0102 24.5451C12.7692 25.5117 14.287 25.4697 15.0038 24.3769C15.4676 23.7045 15.3411 22.8219 14.8352 22.1914L10.408 16.7697Z" fill="#FA6400"/>
</svg>

<svg width="16" height="26" fill="none" xmlns="http://www.w3.org/2000/svg"><path fill-rule="evenodd" clip-rule="evenodd" d="M7.963 0C4.843 0 2.27 2.522 2.27 5.674c0 3.11 2.53 5.674 5.692 5.674a5.66 5.66 0 005.692-5.674C13.655 2.522 11.083 0 7.963 0zm0 7.565a1.886 1.886 0 01-1.898-1.891c0-1.05.844-1.891 1.898-1.891 1.054 0 1.897.84 1.897 1.89a1.886 1.886 0 01-1.897 1.892zm2.445 9.205c1.56-.253 3.12-.799 4.554-1.598a1.9 1.9 0 00.759-2.521c-.464-.883-1.603-1.22-2.488-.715-3.247 1.765-7.252 1.765-10.456-.042-.886-.504-2.024-.21-2.53.673-.506.924-.211 2.017.674 2.521 1.392.799 2.952 1.303 4.512 1.598l-4.385 5.463c-.506.63-.548 1.682-.084 2.312.379.504.927.757 1.475.757s1.054-.21 1.434-.673l4.047-5.001 4.09 5.001c.76.967 2.277.925 2.994-.168.464-.672.337-1.555-.169-2.186l-4.427-5.421z" fill="#FA6400"/></svg>
